public/icons/logo.svg

<svg width="40" height="40" viewBox="0 0 40 40" fill="none" xmlns="http://www.w3.org/2000/svg">
<path d="M15.3419 3.91457C15.9388 3.91872 16.5353 3.92287 17.1047 3.92287H22.8985C23.4679 3.92287 24.0644 3.91872 24.6613 3.91457C26.2681 3.90339 27.8773 3.89219 28.9664 3.96194C32.9313 4.21584 35.6657 6.61819 36.0172 10.7002C36.1006 12.1671 36.0986 13.9341 36.0962 16.018V16.0186C36.0958 16.3763 36.0954 16.7433 36.0954 17.1197V22.9135C36.0954 23.2899 36.0958 23.6569 36.0962 24.0146C36.0986 26.0988 36.1006 27.866 36.0172 29.333C35.6657 33.4151 32.9313 35.8174 28.9664 36.0713C27.8773 36.1411 26.2681 36.1299 24.6613 36.1187C24.0644 36.1145 23.4679 36.1104 22.8985 36.1104H17.1047C16.5353 36.1104 15.9388 36.1145 15.3419 36.1187C13.7351 36.1299 12.1259 36.1411 11.0368 36.0713C7.07192 35.8174 4.33754 33.4151 3.98598 29.333C3.90263 27.8662 3.90464 26.0991 3.90701 24.0152V24.0146C3.90742 23.6569 3.90784 23.2899 3.90784 22.9135V17.1197C3.90784 16.7433 3.90742 16.3763 3.90701 16.0186V16.018C3.90464 13.9341 3.90263 12.1671 3.98598 10.7002C4.33754 6.61819 7.07192 4.21584 11.0368 3.96194C12.1259 3.89219 13.7351 3.90339 15.3419 3.91457Z" fill="url(#paint0_linear_2753_16477)"/>
<g filter="url(#filter0_dddddd_2753_16477)">
<path d="M9.14062 15.3906C9.14062 14.5708 9.8052 13.9062 10.625 13.9062H21.0156C23.0867 13.9062 24.7656 15.5852 24.7656 17.6562V24.5703C24.7656 25.3901 24.101 26.0547 23.2812 26.0547H12.8906C10.8196 26.0547 9.14062 24.3758 9.14062 22.3047V15.3906Z" fill="url(#paint1_linear_2753_16477)"/>
<path d="M9.31641 15.3906C9.31641 14.6679 9.90228 14.082 10.625 14.082H21.0156C22.9896 14.082 24.5898 15.6823 24.5898 17.6562V24.5703C24.5898 25.293 24.004 25.8789 23.2812 25.8789H12.8906C10.9166 25.8789 9.31641 24.2787 9.31641 22.3047V15.3906Z" stroke="url(#paint2_linear_2753_16477)" stroke-width="0.351562"/>
</g>
<g filter="url(#filter1_dddddd_2753_16477)">
<path d="M25.7031 18.2073C25.7031 17.702 25.9205 17.2212 26.2999 16.8875L29.2769 14.2687C29.9077 13.7137 30.8984 14.1617 30.8984 15.0019V24.9888C30.8984 25.8212 29.9239 26.272 29.2896 25.733L26.5569 23.4113C26.0153 22.9511 25.7031 22.2763 25.7031 21.5656V18.2073Z" fill="url(#paint3_linear_2753_16477)"/>
<path d="M25.8789 18.2073C25.8789 17.7526 26.0746 17.3198 26.416 17.0195L29.393 14.4007C29.9103 13.9456 30.7227 14.3129 30.7227 15.0019V24.9888C30.7227 25.6713 29.9235 26.041 29.4034 25.5991L26.6707 23.2773C26.1684 22.8506 25.8789 22.2247 25.8789 21.5656V18.2073Z" stroke="url(#paint4_linear_2753_16477)" stroke-width="0.351562"/>
</g>
<defs>
<filter id="filter0_dddddd_2753_16477" x="6.32812" y="12.8516" width="21.25" height="17.7734" filterUnits="userSpaceOnUse" color-interpolation-filters="sRGB">
<feFlood flood-opacity="0" result="BackgroundImageFix"/>
<feColorMatrix in="SourceAlpha" type="matrix" values="0 0 0 0 0 0 0 0 0 0 0 0 0 0 0 0 0 0 127 0" result="hardAlpha"/>
<feOffset dy="0.0964726"/>
<feGaussianBlur stdDeviation="0.0355378"/>
<feColorMatrix type="matrix" values="0 0 0 0 0.0509804 0 0 0 0 0.121569 0 0 0 0 0.396078 0 0 0 0.189957 0"/>
<feBlend mode="multiply" in2="BackgroundImageFix" result="effect1_dropShadow_2753_16477"/>
<feColorMatrix in="SourceAlpha" type="matrix" values="0 0 0 0 0 0 0 0 0 0 0 0 0 0 0 0 0 0 127 0" result="hardAlpha"/>
<feOffset dy="0.189277"/>
<feGaussianBlur stdDeviation="0.0790384"/>
<feColorMatrix type="matrix" values="0 0 0 0 0.0509804 0 0 0 0 0.121569 0 0 0 0 0.396078 0 0 0 0.368551 0"/>
<feBlend mode="multiply" in2="effect1_dropShadow_2753_16477" result="effect2_dropShadow_2753_16477"/>
<feColorMatrix in="SourceAlpha" type="matrix" values="0 0 0 0 0 0 0 0 0 0 0 0 0 0 0 0 0 0 127 0" result="hardAlpha"/>
<feOffset dy="0.29109"/>
<feGaussianBlur stdDeviation="0.135364"/>
<feColorMatrix type="matrix" values="0 0 0 0 0.0509804 0 0 0 0 0.121569 0 0 0 0 0.396078 0 0 0 0.3 0"/>
<feBlend mode="multiply" in2="effect2_dropShadow_2753_16477" result="effect3_dropShadow_2753_16477"/>
<feColorMatrix in="SourceAlpha" type="matrix" values="0 0 0 0 0 0 0 0 0 0 0 0 0 0 0 0 0 0 127 0" result="hardAlpha"/>
<feOffset dy="0.427121"/>
<feGaussianBlur stdDeviation="0.429883"/>
<feColorMatrix type="matrix" values="0 0 0 0 0.0509804 0 0 0 0 0.121569 0 0 0 0 0.396078 0 0 0 0.3 0"/>
<feBlend mode="multiply" in2="effect3_dropShadow_2753_16477" result="effect4_dropShadow_2753_16477"/>
<feColorMatrix in="SourceAlpha" type="matrix" values="0 0 0 0 0 0 0 0 0 0 0 0 0 0 0 0 0 0 127 0" result="hardAlpha"/>
<feOffset dy="0.664616"/>
<feGaussianBlur stdDeviation="0.799219"/>
<feColorMatrix type="matrix" values="0 0 0 0 0.0509804 0 0 0 0 0.121569 0 0 0 0 0.396078 0 0 0 0.29 0"/>
<feBlend mode="overlay" in2="effect4_dropShadow_2753_16477" result="effect5_dropShadow_2753_16477"/>
<feColorMatrix in="SourceAlpha" type="matrix" values="0 0 0 0 0 0 0 0 0 0 0 0 0 0 0 0 0 0 127 0" result="hardAlpha"/>
<feOffset dy="1.75781"/>
<feGaussianBlur stdDeviation="1.40625"/>
<feColorMatrix type="matrix" values="0 0 0 0 0.0509804 0 0 0 0 0.121569 0 0 0 0 0.396078 0 0 0 0.45 0"/>
<feBlend mode="multiply" in2="effect5_dropShadow_2753_16477" result="effect6_dropShadow_2753_16477"/>
<feBlend mode="normal" in="SourceGraphic" in2="effect6_dropShadow_2753_16477" result="shape"/>
</filter>
<filter id="filter1_dddddd_2753_16477" x="22.8906" y="12.9688" width="10.8203" height="17.5688" filterUnits="userSpaceOnUse" color-interpolation-filters="sRGB">
<feFlood flood-opacity="0" result="BackgroundImageFix"/>
<feColorMatrix in="SourceAlpha" type="matrix" values="0 0 0 0 0 0 0 0 0 0 0 0 0 0 0 0 0 0 127 0" result="hardAlpha"/>
<feOffset dy="0.0964726"/>
<feGaussianBlur stdDeviation="0.0355378"/>
<feColorMatrix type="matrix" values="0 0 0 0 0.0509804 0 0 0 0 0.121569 0 0 0 0 0.396078 0 0 0 0.189957 0"/>
<feBlend mode="multiply" in2="BackgroundImageFix" result="effect1_dropShadow_2753_16477"/>
<feColorMatrix in="SourceAlpha" type="matrix" values="0 0 0 0 0 0 0 0 0 0 0 0 0 0 0 0 0 0 127 0" result="hardAlpha"/>
<feOffset dy="0.189277"/>
<feGaussianBlur stdDeviation="0.0790384"/>
<feColorMatrix type="matrix" values="0 0 0 0 0.0509804 0 0 0 0 0.121569 0 0 0 0 0.396078 0 0 0 0.368551 0"/>
<feBlend mode="multiply" in2="effect1_dropShadow_2753_16477" result="effect2_dropShadow_2753_16477"/>
<feColorMatrix in="SourceAlpha" type="matrix" values="0 0 0 0 0 0 0 0 0 0 0 0 0 0 0 0 0 0 127 0" result="hardAlpha"/>
<feOffset dy="0.29109"/>
<feGaussianBlur stdDeviation="0.135364"/>
<feColorMatrix type="matrix" values="0 0 0 0 0.0509804 0 0 0 0 0.121569 0 0 0 0 0.396078 0 0 0 0.3 0"/>
<feBlend mode="multiply" in2="effect2_dropShadow_2753_16477" result="effect3_dropShadow_2753_16477"/>
<feColorMatrix in="SourceAlpha" type="matrix" values="0 0 0 0 0 0 0 0 0 0 0 0 0 0 0 0 0 0 127 0" result="hardAlpha"/>
<feOffset dy="0.427121"/>
<feGaussianBlur stdDeviation="0.429883"/>
<feColorMatrix type="matrix" values="0 0 0 0 0.0509804 0 0 0 0 0.121569 0 0 0 0 0.396078 0 0 0 0.3 0"/>
<feBlend mode="multiply" in2="effect3_dropShadow_2753_16477" result="effect4_dropShadow_2753_16477"/>
<feColorMatrix in="SourceAlpha" type="matrix" values="0 0 0 0 0 0 0 0 0 0 0 0 0 0 0 0 0 0 127 0" result="hardAlpha"/>
<feOffset dy="0.664616"/>
<feGaussianBlur stdDeviation="0.799219"/>
<feColorMatrix type="matrix" values="0 0 0 0 0.0509804 0 0 0 0 0.121569 0 0 0 0 0.396078 0 0 0 0.29 0"/>
<feBlend mode="overlay" in2="effect4_dropShadow_2753_16477" result="effect5_dropShadow_2753_16477"/>
<feColorMatrix in="SourceAlpha" type="matrix" values="0 0 0 0 0 0 0 0 0 0 0 0 0 0 0 0 0 0 127 0" result="hardAlpha"/>
<feOffset dy="1.75781"/>
<feGaussianBlur stdDeviation="1.40625"/>
<feColorMatrix type="matrix" values="0 0 0 0 0.0509804 0 0 0 0 0.121569 0 0 0 0 0.396078 0 0 0 0.45 0"/>
<feBlend mode="multiply" in2="effect5_dropShadow_2753_16477" result="effect6_dropShadow_2753_16477"/>
<feBlend mode="normal" in="SourceGraphic" in2="effect6_dropShadow_2753_16477" result="shape"/>
</filter>
<linearGradient id="paint0_linear_2753_16477" x1="20.0016" y1="3.90625" x2="20.0016" y2="36.127" gradientUnits="userSpaceOnUse">
<stop stop-color="#A4C1FF"/>
<stop offset="1" stop-color="#0E78F9"/>
</linearGradient>
<linearGradient id="paint1_linear_2753_16477" x1="16.9531" y1="13.9062" x2="16.9531" y2="26.0547" gradientUnits="userSpaceOnUse">
<stop stop-color="white"/>
<stop offset="1" stop-color="#C5D4F7"/>
</linearGradient>
<linearGradient id="paint2_linear_2753_16477" x1="16.9531" y1="13.9062" x2="16.9531" y2="26.0547" gradientUnits="userSpaceOnUse">
<stop stop-color="white"/>
<stop offset="1" stop-color="#637ACA"/>
</linearGradient>
<linearGradient id="paint3_linear_2753_16477" x1="28.3008" y1="14.0234" x2="28.3008" y2="25.9673" gradientUnits="userSpaceOnUse">
<stop stop-color="white"/>
<stop offset="1" stop-color="#C5D4F7"/>
</linearGradient>
<linearGradient id="paint4_linear_2753_16477" x1="28.3008" y1="14.0234" x2="28.3008" y2="25.9673" gradientUnits="userSpaceOnUse">
<stop stop-color="white"/>
<stop offset="1" stop-color="#637ACA"/>
</linearGradient>
</defs>
</svg>

<?xml version="1.0"?>
<svg width="40" height="40" xmlns="http://www.w3.org/2000/svg" xmlns:svg="http://www.w3.org/2000/svg">
 <defs>
  <filter color-interpolation-filters="sRGB" filterUnits="userSpaceOnUse" height="17.77" id="filter0_dddddd_2753_16477" width="21.25" x="6.33" y="12.85">
   <feFlood flood-opacity="0" result="BackgroundImageFix"/>
   <feColorMatrix in="SourceAlpha" result="hardAlpha" type="matrix" values="0 0 0 0 0 0 0 0 0 0 0 0 0 0 0 0 0 0 127 0"/>
   <feOffset dy="0.1"/>
   <feGaussianBlur stdDeviation="0.04"/>
   <feColorMatrix type="matrix" values="0 0 0 0 0.0509804 0 0 0 0 0.121569 0 0 0 0 0.396078 0 0 0 0.189957 0"/>
   <feBlend in2="BackgroundImageFix"/>
   <feColorMatrix in="SourceAlpha" result="hardAlpha" type="matrix" values="0 0 0 0 0 0 0 0 0 0 0 0 0 0 0 0 0 0 127 0"/>
   <feOffset dy="0.19"/>
   <feGaussianBlur stdDeviation="0.08"/>
   <feColorMatrix type="matrix" values="0 0 0 0 0.0509804 0 0 0 0 0.121569 0 0 0 0 0.396078 0 0 0 0.368551 0"/>
   <feBlend in2="effect1_dropShadow_2753_16477"/>
   <feColorMatrix in="SourceAlpha" result="hardAlpha" type="matrix" values="0 0 0 0 0 0 0 0 0 0 0 0 0 0 0 0 0 0 127 0"/>
   <feOffset dy="0.29"/>
   <feGaussianBlur stdDeviation="0.14"/>
   <feColorMatrix type="matrix" values="0 0 0 0 0.0509804 0 0 0 0 0.121569 0 0 0 0 0.396078 0 0 0 0.3 0"/>
   <feBlend in2="effect2_dropShadow_2753_16477"/>
   <feColorMatrix in="SourceAlpha" result="hardAlpha" type="matrix" values="0 0 0 0 0 0 0 0 0 0 0 0 0 0 0 0 0 0 127 0"/>
   <feOffset dy="0.43"/>
   <feGaussianBlur stdDeviation="0.43"/>
   <feColorMatrix type="matrix" values="0 0 0 0 0.0509804 0 0 0 0 0.121569 0 0 0 0 0.396078 0 0 0 0.3 0"/>
   <feBlend in2="effect3_dropShadow_2753_16477"/>
   <feColorMatrix in="SourceAlpha" result="hardAlpha" type="matrix" values="0 0 0 0 0 0 0 0 0 0 0 0 0 0 0 0 0 0 127 0"/>
   <feOffset dy="0.66"/>
   <feGaussianBlur stdDeviation="0.8"/>
   <feColorMatrix type="matrix" values="0 0 0 0 0.0509804 0 0 0 0 0.121569 0 0 0 0 0.396078 0 0 0 0.29 0"/>
   <feBlend in2="effect4_dropShadow_2753_16477"/>
   <feColorMatrix in="SourceAlpha" result="hardAlpha" type="matrix" values="0 0 0 0 0 0 0 0 0 0 0 0 0 0 0 0 0 0 127 0"/>
   <feOffset dy="1.76"/>
   <feGaussianBlur stdDeviation="1.41"/>
   <feColorMatrix type="matrix" values="0 0 0 0 0.0509804 0 0 0 0 0.121569 0 0 0 0 0.396078 0 0 0 0.45 0"/>
   <feBlend in2="effect5_dropShadow_2753_16477"/>
   <feBlend in="SourceGraphic" in2="effect6_dropShadow_2753_16477"/>
  </filter>
  <filter color-interpolation-filters="sRGB" filterUnits="userSpaceOnUse" height="17.57" id="filter1_dddddd_2753_16477" width="10.82" x="22.89" y="12.97">
   <feFlood flood-opacity="0" result="BackgroundImageFix"/>
   <feColorMatrix in="SourceAlpha" result="hardAlpha" type="matrix" values="0 0 0 0 0 0 0 0 0 0 0 0 0 0 0 0 0 0 127 0"/>
   <feOffset dy="0.1"/>
   <feGaussianBlur stdDeviation="0.04"/>
   <feColorMatrix type="matrix" values="0 0 0 0 0.0509804 0 0 0 0 0.121569 0 0 0 0 0.396078 0 0 0 0.189957 0"/>
   <feBlend in2="BackgroundImageFix"/>
   <feColorMatrix in="SourceAlpha" result="hardAlpha" type="matrix" values="0 0 0 0 0 0 0 0 0 0 0 0 0 0 0 0 0 0 127 0"/>
   <feOffset dy="0.19"/>
   <feGaussianBlur stdDeviation="0.08"/>
   <feColorMatrix type="matrix" values="0 0 0 0 0.0509804 0 0 0 0 0.121569 0 0 0 0 0.396078 0 0 0 0.368551 0"/>
   <feBlend in2="effect1_dropShadow_2753_16477"/>
   <feColorMatrix in="SourceAlpha" result="hardAlpha" type="matrix" values="0 0 0 0 0 0 0 0 0 0 0 0 0 0 0 0 0 0 127 0"/>
   <feOffset dy="0.29"/>
   <feGaussianBlur stdDeviation="0.14"/>
   <feColorMatrix type="matrix" values="0 0 0 0 0.0509804 0 0 0 0 0.121569 0 0 0 0 0.396078 0 0 0 0.3 0"/>
   <feBlend in2="effect2_dropShadow_2753_16477"/>
   <feColorMatrix in="SourceAlpha" result="hardAlpha" type="matrix" values="0 0 0 0 0 0 0 0 0 0 0 0 0 0 0 0 0 0 127 0"/>
   <feOffset dy="0.43"/>
   <feGaussianBlur stdDeviation="0.43"/>
   <feColorMatrix type="matrix" values="0 0 0 0 0.0509804 0 0 0 0 0.121569 0 0 0 0 0.396078 0 0 0 0.3 0"/>
   <feBlend in2="effect3_dropShadow_2753_16477"/>
   <feColorMatrix in="SourceAlpha" result="hardAlpha" type="matrix" values="0 0 0 0 0 0 0 0 0 0 0 0 0 0 0 0 0 0 127 0"/>
   <feOffset dy="0.66"/>
   <feGaussianBlur stdDeviation="0.8"/>
   <feColorMatrix type="matrix" values="0 0 0 0 0.0509804 0 0 0 0 0.121569 0 0 0 0 0.396078 0 0 0 0.29 0"/>
   <feBlend in2="effect4_dropShadow_2753_16477"/>
   <feColorMatrix in="SourceAlpha" result="hardAlpha" type="matrix" values="0 0 0 0 0 0 0 0 0 0 0 0 0 0 0 0 0 0 127 0"/>
   <feOffset dy="1.76"/>
   <feGaussianBlur stdDeviation="1.41"/>
   <feColorMatrix type="matrix" values="0 0 0 0 0.0509804 0 0 0 0 0.121569 0 0 0 0 0.396078 0 0 0 0.45 0"/>
   <feBlend in2="effect5_dropShadow_2753_16477"/>
   <feBlend in="SourceGraphic" in2="effect6_dropShadow_2753_16477"/>
  </filter>
  <linearGradient id="paint3_linear_2753_16477" x1="0.5" x2="0.5" y1="0" y2="1">
   <stop stop-color="white"/>
   <stop offset="1" stop-color="#C5D4F7"/>
  </linearGradient>
 </defs>
 <g class="layer">
  <title>Layer 1</title>
  <path d="m15.34,3.91c0.6,0.01 1.2,0.01 1.76,0.01l5.8,0c0.57,0 1.16,0 1.76,-0.01c1.61,-0.01 3.22,-0.02 4.31,0.05c3.96,0.26 6.7,2.66 7.05,6.74c0.08,1.47 0.08,3.23 0.08,5.32l0,0c0,0.36 0,0.72 0,1.1l0,5.79c0,0.38 0,0.75 0,1.1c0,2.09 0,3.86 -0.08,5.32c-0.35,4.09 -3.09,6.49 -7.05,6.74c-1.09,0.07 -2.7,0.06 -4.31,0.05c-0.6,-0.01 -1.19,-0.01 -1.76,-0.01l-5.8,0c-0.56,0 -1.16,0 -1.76,0.01c-1.6,0.01 -3.21,0.02 -4.3,-0.05c-3.97,-0.25 -6.7,-2.65 -7.05,-6.74c-0.09,-1.46 -0.09,-3.23 -0.08,-5.31l0,-0.01c0,-0.35 0,-0.72 0,-1.1l0,-5.79c0,-0.38 0,-0.74 0,-1.1l0,0c-0.01,-2.09 -0.01,-3.85 0.08,-5.32c0.35,-4.08 3.08,-6.48 7.05,-6.74c1.09,-0.07 2.7,-0.06 4.3,-0.05z" fill="#3ad305" id="svg_1" transform="matrix(1 0 0 1 0 0)"/>
  <g filter="url(#filter0_dddddd_2753_16477)" id="svg_2" transform="matrix(1 0 0 1 0 0)">
   <path d="m9.14,15.39c0,-0.82 0.67,-1.48 1.49,-1.48l10.39,0c2.07,0 3.75,1.68 3.75,3.75l0,6.91c0,0.82 -0.67,1.48 -1.49,1.48l-10.39,0c-2.07,0 -3.75,-1.67 -3.75,-3.75l0,-6.91z" fill="#000000" id="svg_3" stroke="#00ff00"/>
   <path d="m9.32,15.39c0,-0.72 0.58,-1.31 1.31,-1.31l10.39,0c1.97,0 3.57,1.6 3.57,3.58l0,6.91c0,0.72 -0.59,1.31 -1.31,1.31l-10.39,0c-1.97,0 -3.57,-1.6 -3.57,-3.58l0,-6.91z" fill="#000000" id="svg_4" stroke="#00ff00" stroke-width="0.35"/>
  </g>
  <g filter="url(#filter1_dddddd_2753_16477)" id="svg_5">
   <path d="m25.7,18.21c0,-0.51 0.22,-0.99 0.6,-1.32l2.98,-2.62c0.63,-0.56 1.62,-0.11 1.62,0.73l0,9.99c0,0.83 -0.98,1.28 -1.61,0.74l-2.73,-2.32c-0.54,-0.46 -0.86,-1.13 -0.86,-1.84l0,-3.36z" fill="url(#paint3_linear_2753_16477)" id="svg_6" stroke="#00ff00"/>
   <path d="m25.88,18.21c0,-0.46 0.19,-0.89 0.54,-1.19l2.97,-2.62c0.52,-0.45 1.33,-0.09 1.33,0.6l0,9.99c0,0.68 -0.8,1.05 -1.32,0.61l-2.73,-2.32c-0.5,-0.43 -0.79,-1.06 -0.79,-1.71l0,-3.36z" id="svg_7" stroke="#00ff00" stroke-width="0.35"/>
  </g>
 </g>
</svg>
